public/assets/images/General/Vector (1).svg

<svg width="19" height="29" viewBox="0 0 19 29" fill="none" xmlns="http://www.w3.org/2000/svg">
<path d="M16.0617 15.8442C15.8592 15.4691 15.6425 15.1512 15.4119 14.8911C15.1814 14.6307 14.8797 14.3928 14.5063 14.1768C14.1334 13.9607 13.8034 13.793 13.517 13.6731C13.2306 13.5529 12.8466 13.4321 12.3651 13.3103C11.884 13.1884 11.505 13.1022 11.2286 13.0512C10.9519 13.0004 10.5534 12.9349 10.0332 12.8547C9.57153 12.7812 9.2271 12.7232 8.99962 12.6811C8.77237 12.6387 8.4716 12.574 8.09712 12.4867C7.72284 12.3995 7.43853 12.3122 7.24443 12.2249C7.05038 12.1377 6.83923 12.0255 6.61085 11.8884C6.38248 11.7513 6.20856 11.5908 6.08896 11.4069C5.96955 11.223 5.88472 11.0127 5.83473 10.7761C5.70402 10.1575 5.86981 9.59468 6.33242 9.0883C6.79507 8.58191 7.45812 8.2374 8.32152 8.05498C8.70301 7.97437 9.10299 7.94445 9.52017 7.96574C9.93735 7.98702 10.3008 8.03348 10.6105 8.10599C10.9204 8.17846 11.2169 8.26795 11.5005 8.37429C11.7841 8.48078 11.9867 8.56383 12.1086 8.62362C12.2304 8.68349 12.3082 8.72404 12.3409 8.74569C12.4785 8.81167 12.6076 8.81761 12.7291 8.76352C12.8634 8.72565 12.9526 8.63064 12.9967 8.47889L13.68 6.25268C13.7505 6.04773 13.6915 5.87957 13.5022 5.74834C13.4361 5.70528 13.3547 5.65599 13.257 5.60054C13.16 5.5449 12.9549 5.45046 12.6416 5.31692C12.3287 5.18347 12.0041 5.0738 11.6681 4.98791C11.3319 4.90224 10.9042 4.83327 10.3853 4.7814C9.86661 4.72922 9.34228 4.73078 8.81261 4.7857L8.30501 2.38324C8.27811 2.25592 8.21516 2.15985 8.1163 2.09513C8.01728 2.03065 7.90404 2.01168 7.77661 2.0386L5.93619 2.42745C5.81807 2.45241 5.72496 2.51718 5.65691 2.62191C5.58886 2.72663 5.56732 2.83806 5.59232 2.95639L6.11144 5.41335C4.74226 5.98772 3.71238 6.84225 3.02173 7.9768C2.33119 9.11138 2.11837 10.3064 2.38373 11.5623C2.46255 11.9354 2.5763 12.282 2.72466 12.6023C2.87298 12.9228 3.0324 13.2052 3.20274 13.4496C3.37303 13.6942 3.59016 13.9239 3.85395 14.1391C4.11772 14.3543 4.36255 14.5355 4.5882 14.6826C4.81394 14.8296 5.09794 14.9717 5.44002 15.1085C5.78233 15.2454 6.07321 15.3528 6.31277 15.4305C6.55229 15.5077 6.86614 15.5892 7.25403 15.6733C7.64211 15.7577 7.94711 15.8191 8.16895 15.858C8.39073 15.8966 8.6942 15.9514 9.07946 16.0218C9.61052 16.1092 10.0054 16.1803 10.2637 16.2351C10.5223 16.2898 10.8528 16.3721 11.256 16.4818C11.6588 16.5914 11.9605 16.7059 12.1615 16.8251C12.3623 16.9443 12.5548 17.1033 12.7393 17.3019C12.9238 17.5005 13.043 17.7272 13.0969 17.9821C13.2488 18.701 13.0866 19.3151 12.6101 19.8242C12.134 20.3336 11.5276 20.6661 10.7916 20.8216C10.4557 20.8926 10.1115 20.9275 9.76003 20.9258C8.52855 20.9385 7.30426 20.603 6.08701 19.9192L6.05398 19.8977C5.95105 19.8151 5.83328 19.7972 5.70098 19.8442C5.55938 19.8931 5.46636 19.9699 5.42208 20.0745L4.40727 22.2137C4.30936 22.4245 4.35798 22.609 4.55281 22.7675C4.60986 22.8125 4.7067 22.8778 4.84327 22.9628C4.98022 23.0482 5.22753 23.1739 5.58548 23.3412C5.94345 23.5081 6.3258 23.6551 6.7327 23.7833C7.13948 23.9112 7.64337 24.0161 8.2447 24.0983C8.84595 24.1801 9.45495 24.1987 10.0721 24.1538L10.5768 26.5425C10.6018 26.661 10.6666 26.7541 10.7712 26.8224C10.8758 26.8908 10.9871 26.9122 11.1052 26.8872L12.9457 26.4984C13.0731 26.4715 13.169 26.4085 13.2334 26.3094C13.2978 26.2104 13.3164 26.0971 13.2894 25.9694L12.7847 23.5807C14.18 23.0388 15.2233 22.1695 15.915 20.973C16.6067 19.7763 16.8057 18.4819 16.5115 17.0897C16.4149 16.6349 16.2656 16.2197 16.0617 15.8442Z" fill="#79A164" fill-opacity="0.5"/>
</svg>

<svg width="19" height="29" fill="none" xmlns="http://www.w3.org/2000/svg"><path d="M16.062 15.844a5.044 5.044 0 0 0-.65-.953 3.607 3.607 0 0 0-.906-.714 8.788 8.788 0 0 0-.989-.504 8.413 8.413 0 0 0-1.152-.363c-.481-.122-.86-.208-1.136-.259-.277-.05-.676-.116-1.196-.196A45.457 45.457 0 0 1 9 12.68a21.7 21.7 0 0 1-.903-.194 4.911 4.911 0 0 1-.853-.262 6.12 6.12 0 0 1-.633-.337 1.57 1.57 0 0 1-.522-.481 1.848 1.848 0 0 1-.254-.63c-.131-.62.035-1.182.497-1.689.463-.506 1.126-.85 1.99-1.033.381-.08.781-.11 1.198-.09.417.022.78.068 1.09.141.31.072.607.162.89.268.284.107.487.19.609.25.121.06.2.1.232.122a.444.444 0 0 0 .388.018c.134-.038.224-.133.268-.285l.683-2.226c.07-.205.011-.373-.178-.505a4.756 4.756 0 0 0-.245-.147 7.242 7.242 0 0 0-.615-.284 6.72 6.72 0 0 0-.974-.33 8.937 8.937 0 0 0-1.283-.206 7.72 7.72 0 0 0-1.572.005l-.508-2.403a.436.436 0 0 0-.189-.288.434.434 0 0 0-.34-.056l-1.84.388a.428.428 0 0 0-.28.195.43.43 0 0 0-.064.334l.52 2.457c-1.37.575-2.4 1.43-3.09 2.564-.69 1.134-.904 2.33-.638 3.585.079.373.192.72.34 1.04.149.32.308.603.479.848.17.244.387.474.651.69.264.214.509.396.734.543.226.147.51.289.852.425.342.137.633.245.873.322.24.078.553.16.941.243.388.085.693.146.915.185.222.039.525.093.91.164.532.087.926.158 1.185.213.258.055.589.137.992.247.403.11.704.224.905.343.201.12.394.278.578.477.185.198.304.425.358.68.152.719-.01 1.333-.487 1.842-.476.51-1.082.842-1.818.998-.336.07-.68.105-1.032.104-1.231.013-2.456-.323-3.673-1.007l-.033-.021a.345.345 0 0 0-.353-.054c-.142.05-.235.126-.279.23l-1.015 2.14c-.098.21-.049.395.146.553.057.046.154.11.29.196.137.085.385.21.742.378.358.167.74.314 1.148.442.406.128.91.233 1.512.315.601.082 1.21.1 1.827.056l.505 2.389a.43.43 0 0 0 .194.28c.105.068.216.09.334.064l1.84-.389a.434.434 0 0 0 .288-.189.435.435 0 0 0 .056-.34l-.504-2.388c1.395-.542 2.438-1.412 3.13-2.608.692-1.197.89-2.491.597-3.883a4.594 4.594 0 0 0-.45-1.246Z" fill="#79A164" fill-opacity=".5"/></svg>
